X: 2
T: Kelly The Boy From Killane
Z: ceolachan
S: https://thesession.org/tunes/3831#setting24358
R: barndance
M: 4/4
L: 1/8
K: Dmaj
|: D/E/F/G/ |AB/A/ FA dc/d/ cB | AB/A/ FD B,2 B,/C/D/E/ | FG/F/ EF AG EC | DE/D/ D>C D2 :|
FA |G2 GD d2 dc/B/ | A2 dB A2 E/F/G/A/ | B2 GB d2 e/d/c/B/ | A6 DF |
A2 D/F/A de/d/ cB | AB/A/ FD B,2 D/E/F/G/ | F2 E>F AG EC | D6 |]
